src/assets/icons/turret/turret_remote_enter_3.svg

<?xml version="1.0" encoding="utf-8"?>
<!-- Generator: Adobe Illustrator 27.4.0, SVG Export Plug-In . SVG Version: 6.00 Build 0)  -->
<svg version="1.1" id="icon" xmlns="http://www.w3.org/2000/svg" xmlns:xlink="http://www.w3.org/1999/xlink" x="0px" y="0px"
	 viewBox="0 0 400 400" style="enable-background:new 0 0 400 400;" xml:space="preserve">
<path d="M216.71,370.71l-7.9,7.9h48.62l-92.98-92.98c10.25-10.75,10.25-27.66,0-38.41l-47.4,12.15c-2.38,9.24,0.14,19.06,6.68,26.01
	l-92.98,93.1h48.62l-8.02-8.02l72.93-72.93L216.71,370.71z M400,134.31l-7.17,7.78l-45.09,12.15l-8.14-3.65L208.2,185.84l1.46,5.35
	l-22.24,31.48L47.89,259.98l-13.73-7.66L22,207.47l7.9-13.73l161.17-43.15l8.63,3.52l1.46,5.35l131.39-35.37l5.23-7.17l44.36-12.15
	l10.09,3.28L400,134.31z M378,50.68l-7.17,7.17l-45.09,12.15l-8.14-3.65L186.2,102.1l1.46,5.35l-22.12,33.42L26.01,178.3
	l-13.86-8.02L0,123.73L7.9,110l161.17-43.15l8.63,3.52l1.46,5.35L310.54,40.6l5.47-7.05l44.36-12.15l10.09,3.28L378,50.68z"/>
<polygon points="320,280 320,300.11 380,300.11 380,320 340,320 340,340 380,340 380,360 320,360 320,380 400,380 400,360 400,340 
	400,320 400,300.11 400,300 400,280 "/>
</svg>

<?xml version="1.0" encoding="UTF-8" standalone="no"?>
<!DOCTYPE svg PUBLIC "-//W3C//DTD SVG 1.1//EN" "http://www.w3.org/Graphics/SVG/1.1/DTD/svg11.dtd">
<svg width="100%" height="100%" viewBox="0 0 400 400" version="1.1" xmlns="http://www.w3.org/2000/svg" xmlns:xlink="http://www.w3.org/1999/xlink" xml:space="preserve" xmlns:serif="http://www.serif.com/" style="fill-rule:evenodd;clip-rule:evenodd;stroke-linejoin:round;stroke-miterlimit:2;">
    <path d="M216.71,370.71L208.81,378.61L257.43,378.61L164.45,285.63C174.7,274.88 174.7,257.97 164.45,247.22L117.05,259.37C114.67,268.61 117.19,278.43 123.73,285.38L30.75,378.48L79.37,378.48L71.35,370.46L144.28,297.53L216.71,370.71ZM400,134.31L392.83,142.09L347.74,154.24L339.6,150.59L208.2,185.84L209.66,191.19L187.42,222.67L47.89,259.98L34.16,252.32L22,207.47L29.9,193.74L191.07,150.59L199.7,154.11L201.16,159.46L332.55,124.09L337.78,116.92L382.14,104.77L392.23,108.05L400,134.31ZM378,50.68L370.83,57.85L325.74,70L317.6,66.35L186.2,102.1L187.66,107.45L165.54,140.87L26.01,178.3L12.15,170.28L0,123.73L7.9,110L169.07,66.85L177.7,70.37L179.16,75.72L310.54,40.6L316.01,33.55L360.37,21.4L370.46,24.68L378,50.68Z" style="fill-rule:nonzero;"/>
    <g id="num" transform="matrix(1,0,0,1,0,-20)">
        <path d="M360,240L280,240L280,280L360,280L360,300L300,300L300,340L360,340L360,360L280,360L280,400L360,400C382.09,400 400,382.09 400,360L400,340C400,328.95 391.05,320 380,320C391.05,320 400,311.05 400,300L400,280C400,257.91 382.09,240 360,240Z" style="fill-rule:nonzero;"/>
    </g>
</svg>
